packages/components/bolt-icons/src/svgs/pega/pega-dollar.svg

<svg viewBox="0 0 32 32" xmlns="http://www.w3.org/2000/svg"><path fill="#fff" d="m31 6.63h-30a1 1 0 0 0 -1 1v16.74a1 1 0 0 0 1 1h30a1 1 0 0 0 1-1v-16.74a1 1 0 0 0 -1-1zm-4.41 16.74h-21.18a4.48 4.48 0 0 0 -3.41-3.32v-8.05a4.48 4.48 0 0 0 3.41-3.37h21.18a4.48 4.48 0 0 0 3.41 3.37v8.1a4.48 4.48 0 0 0 -3.41 3.27zm3.41-13.5a2.52 2.52 0 0 1 -1.31-1.24h1.31zm-26.69-1.24a2.52 2.52 0 0 1 -1.31 1.24v-1.24zm-1.31 13.5a2.52 2.52 0 0 1 1.31 1.24h-1.31zm26.69 1.24a2.52 2.52 0 0 1 1.31-1.24v1.24z"/><path fill="#fff" d="m16.74 15.44v-2.71a3.54 3.54 0 0 1 1.44.58.7.7 0 1 0 .88-1.09 5 5 0 0 0 -2.32-.91v-.31a.7.7 0 1 0 -1.4 0v.36a2.65 2.65 0 0 0 -2.45 2.64c0 1.42 1.41 2.11 2.45 2.49v2.51a6 6 0 0 1 -1.68-.79.7.7 0 1 0 -.85 1.11 7 7 0 0 0 2.53 1.12v.62a.7.7 0 0 0 1.4 0v-.56c1.27-.18 2.72-1 2.72-2.49 0-1.68-1.66-2.24-2.72-2.57zm-2.45-1.44a1.23 1.23 0 0 1 1.05-1.22v2.19c-.54-.28-1.05-.61-1.05-.97zm2.45 5.15v-2.2c.89.32 1.32.6 1.32 1.13s-.66.92-1.32 1.03z"/></svg>

<svg id="icon-dollar" data-name="dollar" xmlns="http://www.w3.org/2000/svg" viewBox="0 0 32 32"><path d="M31,6.63H1a1,1,0,0,0-1,1V24.37a1,1,0,0,0,1,1H31a1,1,0,0,0,1-1V7.63A1,1,0,0,0,31,6.63ZM26.59,23.37H5.41A4.48,4.48,0,0,0,2,20.05V12A4.48,4.48,0,0,0,5.41,8.63H26.59A4.48,4.48,0,0,0,30,12v8.1A4.48,4.48,0,0,0,26.59,23.37ZM30,9.87a2.52,2.52,0,0,1-1.31-1.24H30ZM3.31,8.63A2.52,2.52,0,0,1,2,9.87V8.63ZM2,22.13a2.52,2.52,0,0,1,1.31,1.24H2Zm26.69,1.24A2.52,2.52,0,0,1,30,22.13v1.24Z"/><path d="M16.74,15.44V12.73a3.54,3.54,0,0,1,1.44.58.7.7,0,1,0,.88-1.09,5,5,0,0,0-2.32-.91V11a.7.7,0,1,0-1.4,0v.36A2.65,2.65,0,0,0,12.89,14c0,1.42,1.41,2.11,2.45,2.49V19a6,6,0,0,1-1.68-.79.7.7,0,1,0-.85,1.11,7,7,0,0,0,2.53,1.12v.62a.7.7,0,0,0,1.4,0v-.56c1.27-.18,2.72-1,2.72-2.49C19.46,16.33,17.8,15.77,16.74,15.44ZM14.29,14a1.23,1.23,0,0,1,1.05-1.22v2.19C14.8,14.69,14.29,14.36,14.29,14Zm2.45,5.15v-2.2c.89.32,1.32.6,1.32,1.13S17.4,19,16.74,19.11Z"/></svg>
